X: 1
T: Man In The Bog
M: 6/8
L: 1/8
R: jig
K: Gmaj
~G3 dBG|ABc AGE|EDB, DGA|BAG cBA|
~G3 dBG|ABc AGE|EDB, DGB|AGF G2F|
~G3 dBG|ABc AGE|EDB, DGA|~B3 cBA|
~G3 dBG|ABc AGE|EDB, DGB|AGF GBd||
~g3 fed|~e3 dBA|BEE dEE|BAG ABd|
~g3 fed|~e3 dBA|BEE dBA|AGF G2d|
~g3 fed|gfe dBA|BEE dEE|BAG ABA|
~G3 dBG|ABc AGE|EDB, DGB|AGF G2F||
